packages/kaspersky-hexa-ui-icons/src/iconsSVGs/16/Api.svg

<svg width="16" height="16" viewBox="0 0 16 16" fill="none" xmlns="http://www.w3.org/2000/svg">
<path fill-rule="evenodd" clip-rule="evenodd" d="M7.99902 1.34863C9.18683 1.34894 10.2834 1.91054 10.9727 2.9248C12.2381 3.17631 13.3144 4.28345 13.3145 5.74902C13.3142 7.00511 12.4988 8.04919 11.3779 8.45898L12.457 9.53809C12.5788 9.65996 12.6475 9.82577 12.6475 9.99805V11.3604C13.3615 11.4981 13.9136 12.0918 13.9883 12.8262L13.9971 12.9971C13.9969 13.9172 13.2502 14.6631 12.3301 14.6631C11.41 14.663 10.6642 13.9171 10.6641 12.9971C10.6641 12.4451 10.9333 11.9567 11.3467 11.6533V10.2666L9.72852 8.64844H8.64844V9.46387C9.19546 9.69635 9.59369 10.212 9.65625 10.8271L9.66504 10.998C9.66464 11.9179 8.91794 12.6639 7.99805 12.6641C7.07815 12.6639 6.33243 11.9179 6.33203 10.998C6.33203 10.3086 6.75064 9.71643 7.34766 9.46289V8.64844H6.26758L4.64941 10.2666V11.6514C5.02029 11.923 5.27521 12.3444 5.32422 12.8262L5.33301 12.9971C5.33288 13.917 4.58596 14.6628 3.66602 14.6631C2.74596 14.663 1.99916 13.9171 1.99902 12.9971C1.99902 12.1852 2.58004 11.5085 3.34863 11.3604V9.99707C3.34876 9.82497 3.41743 9.65985 3.53906 9.53809L4.53418 8.54199C3.52967 8.25035 2.68289 7.37871 2.68262 6.24902C2.68262 5.53582 2.91297 4.89402 3.35547 4.41406C3.69847 4.0421 4.14508 3.79497 4.64844 3.67871C5.19401 2.20699 6.55374 1.34863 7.99902 1.34863ZM3.66602 12.6309C3.46385 12.631 3.2998 12.7949 3.2998 12.9971C3.29994 13.1992 3.46393 13.3631 3.66602 13.3633C3.86799 13.363 4.03209 13.1991 4.03223 12.9971C4.03223 12.795 3.86807 12.6311 3.66602 12.6309ZM12.3301 12.6309C12.1279 12.631 11.9639 12.7949 11.9639 12.9971C11.964 13.1992 12.128 13.3631 12.3301 13.3633C12.5323 13.3633 12.6962 13.1992 12.6963 12.9971C12.6963 12.7948 12.5324 12.6309 12.3301 12.6309ZM7.99805 10.6475C7.97178 10.6475 7.94635 10.6417 7.9209 10.6387C7.75554 10.674 7.63184 10.8222 7.63184 10.998C7.63223 11.1999 7.79612 11.3641 7.99805 11.3643C8.19997 11.3641 8.36386 11.1999 8.36426 10.998C8.36426 10.8216 8.23936 10.6734 8.07324 10.6387C8.04841 10.6415 8.02364 10.6475 7.99805 10.6475ZM7.99902 2.65039C6.98654 2.65039 6.05221 3.29423 5.77832 4.41309L5.66602 4.87207L5.19434 4.90625C4.7974 4.93544 4.5049 5.08536 4.31152 5.29492C4.11816 5.50462 3.9834 5.81878 3.9834 6.24902C3.98378 6.78523 4.54364 7.34863 5.26172 7.34863H10.3311C11.2825 7.34838 12.0134 6.60994 12.0137 5.74902C12.0136 4.8897 11.3209 4.23005 10.5352 4.17285L10.1865 4.14746L10.0156 3.8418C9.58086 3.06599 8.83025 2.65072 7.99902 2.65039Z" fill="black"/>
</svg>

<svg xmlns="http://www.w3.org/2000/svg" width="16" height="16" fill="none" viewBox="0 0 16 16"><path fill="#000" fill-rule="evenodd" d="M7.999 1.3486c1.1878.0003 2.2844.562 2.9737 1.5762 1.2654.2515 2.3417 1.3587 2.3418 2.8242-.0003 1.2561-.8157 2.3002-1.9366 2.71l1.0791 1.079a.652.652 0 0 1 .1905.46v1.3624c.714.1377 1.2661.7314 1.3408 1.4658l.0088.1709c-.0002.9201-.7469 1.666-1.667 1.666-.9201-.0001-1.6659-.746-1.666-1.666 0-.552.2692-1.0404.6826-1.3438v-1.3867L9.7285 8.6484h-1.08v.8155c.547.2325.9452.7481 1.0077 1.3632l.0088.1709c-.0004.9199-.747 1.6659-1.667 1.6661-.9199-.0002-1.6656-.7462-1.666-1.6661 0-.6894.4186-1.2816 1.0157-1.5351v-.8145H6.2676l-1.6182 1.6182v1.3848c.3709.2716.6258.693.6748 1.1748l.0088.1709c-.0001.9199-.747 1.6657-1.667 1.666-.92-.0001-1.6668-.746-1.667-1.666 0-.8119.581-1.4886 1.3496-1.6367V9.9971a.65.65 0 0 1 .1905-.459l.995-.9961C3.5298 8.2503 2.683 7.3787 2.6827 6.249c0-.7132.2304-1.355.6729-1.835.343-.3719.7896-.619 1.293-.7353.5455-1.4717 1.9052-2.33 3.3505-2.33M3.666 12.631a.3664.3664 0 0 0-.3662.3662.3666.3666 0 0 0 .3662.3662.367.367 0 0 0 .3662-.3662.3666.3666 0 0 0-.3662-.3662m8.6641 0a.3663.3663 0 0 0-.3662.3662.3666.3666 0 0 0 .3662.3662.3661.3661 0 1 0 0-.7324m-4.332-1.9834c-.0263 0-.0518-.0058-.0772-.0088a.3671.3671 0 0 0 .0772.7256.367.367 0 0 0 .3662-.3663.3674.3674 0 0 0-.291-.3593c-.0249.0028-.0497.0088-.0752.0088m.001-7.9971c-1.0126 0-1.9469.6438-2.2208 1.7627l-.1123.459-.4717.0342c-.3969.0291-.6894.179-.8828.3886-.1933.2097-.3281.5239-.3281.9541.0004.5362.5602 1.0996 1.2783 1.0996h5.0694c.9514-.0002 1.6823-.7387 1.6826-1.5996-.0001-.8593-.6928-1.519-1.4785-1.5761l-.3487-.0254-.1709-.3057c-.4347-.7758-1.1853-1.191-2.0166-1.1914"/></svg>
